X:6
T:Thalassaki
O:Greece
M:7/8
K:Dm
|:D3G2FG|A4BAG|G2GFEDE|F5ED|F2ED4:|
G3GGFG|A2GF2EC|D3A2AG|GFGFED2|E2GFGEC|D5z2|
G3GGFG|A2GF2EC|D3A2AG|GFGFED2|E2GFGEC|D4BAG|
F2EDCDE|F2GABAG|FEGFGEC|D3z4||
